!!!OTL: 727. Robin Adair.
!!!ARE: Europa, Mitteleuropa, Deutschland; Ireland
!!!SCT: B0727
!!!TXL: @@DE
!!!YEM: Copyright 1995, estate of Helmut Schaffrath.
**kern	**text
*ICvox	*
*Ivox	*
*clefG2	*
*M3/4	*
*k[b-e-]	*
*B-:	*
=1	=1
!LO:TX:a:t=dolce.	!
!LO:TX:a:t=Mäßig, langſam und innig.	!
{4f	Treu
4g	und
4a	herʒ-
=2	=2
4.b-	-in-
8cc	-nig-
4dd}	-lich,
=3	=3
{16fL	Ro-
8.b-J	.
16gL	-bin
8.b-J	.
16aL	A-
8.ccJ	.
=4	=4
2b-	-dair!
4r}	.
=5	=5
{4f	tau-
4g	-ſend-
4a	-mal
=6	=6
4.b-	grüß'
8cc	ich
4dd}	dich,
=7	=7
{16fL	Ro-
8.b-J	.
16gL	-bin
8.b-J	.
16aL	A-
8.ccJ	.
=8	=8
2b-	-dair!
4r}	.
=9	=9
{4dd	Hab'
4dd	ich
4dd	doch
=10	=10
4.ee-	man-
8g	-che
4g}	Nacht
=11	=11
{4f	ſchlummer-
4.dd	.
8cc	-los
=12	=12
4.b-	ʒu-
8g	-ge-
4f}	-bracht,
=13	=13
{4ff	im-
8ee-L	-mer
8ddJ	.
8ccL	an
8b-J	.
=14	=14
4.b-SS	dich
8cc	ge-
4dd;}	-dacht,
=15	=15
{16fL	Ro-
8.b-J	.
16gL	-bin
8.b-J	.
16a/L	A-
8.ccJ	.
=16	=16
2b-	-dair!
4r}	.
==	==
!!!AGN: Liebes - Lied
!!!GTL: Auslaendische Weisen, die in Deutschland gesungen wurden
!!!ONB: ESAC (Essen Associative Code) Database: BOEHME
!!!AMT: simple triple
!!!AIN: vox
!!!EED: Helmut Schaffrath
!!!EEV: 1.0
!!Jriſche Volksweiſe: Elleen-a-Roon. 1702.
!!@@COMMENT:"Nach einem iriſchen Volksliede "Elleen-a-Roon". Deutſche Ueberſetʒung von Wilh. Gerbard, ʒnerſt in Hell's Abendʒeitung 1826 Nr. 273."
!!Das Original in: The ancient Musie of Jreland by Edw. Bunting. Dublin 1840
!!Nr. 123. Die Melodie ſchon 1702 von Lyons ʒu Variationen benutʒt. Das Lied wurde geandert
!!durch die franʒ. Ueberſetʒung, welche in die Oper: "Dame blanche" von Boieldieu 1825 ein-
!!gelegt wurde. Dieſer franʒ. Text wurde von M. Gerhard 1826 überſetʒt (ſ. oben) und F. Silchers
!!Volkslieder für Männerſtimmen 4. Heft, Nr. 10 (1834) weit verbreitet. -
!!Weil die iriſche Melodie vielfach entſtellt, d. h. modernifirt und verſchönert worden iſt, ſo mag
!!hier das Original ſolgen, welches nach der altkeltiſchen Fünftonleiter ſohne Leiteton) geht.
!!Jriah Song-Tune from Bunting: Elleen-a-Roon. "[...]"
!!@@END:
!!!URL-scan: https://archive.org/details/BoehmeVtLieder1895/page/n577/mode/2up
!!!ENC: Anna Maria Matuszewska
!!!EEV: 2024/18/07
*-	*-
